icons/2_Variations/ManyVids bg.var.svg

<svg width="1024" height="1024" fill="none" xmlns="http://www.w3.org/2000/svg"><g clip-path="url(#a)"><path d="M512 1024c282.77 0 512-229.23 512-512S794.77 0 512 0 0 229.23 0 512s229.23 512 512 512Z" fill="#FF837D"/><path d="M677.14 443.199a99.654 99.654 0 0 0-127.4-7.85 123.843 123.843 0 0 0-37.47 48.82c-3.71-6.53-6.69-12.35-10.12-17.83-34.25-55.2-99.62-66.66-150.72-26.55-36.71 28.83-54.16 84.91-41.05 131.79a220.527 220.527 0 0 0 52.14 87.62 629.905 629.905 0 0 0 146.28 116.19 9.525 9.525 0 0 0 8.07-.64 662.125 662.125 0 0 0 125.33-95.15 308.495 308.495 0 0 0 62.17-82.6 132.14 132.14 0 0 0-27.23-153.8Zm-200.19 221.34c.18-2.22.491-4.427.93-6.61 5.47-21 10.78-42.09 16.68-63a8.149 8.149 0 0 0-2.71-10 29.734 29.734 0 0 1-9.55-34.43 31.489 31.489 0 0 1 28.16-21.5 32.464 32.464 0 0 1 30 17.58 29.821 29.821 0 0 1-5 35.3 12.999 12.999 0 0 0-4 15.43c6.08 20.6 11.21 41.44 16.7 62.19.39 1.4.56 3 .91 4.94l-72.12.1Zm-83.07-398.27a23.29 23.29 0 0 1 19.64-17.51 22.421 22.421 0 0 1 24.56 15.06c3 8.37 1.28 15.57-6.68 26.21 9.13 8.6 18 17.77 27.81 25.88 8 6.67 12.25 6 17.56-2.9 7.48-12.45 14.16-25.41 20.63-38.43.85-1.71-.82-5.58-2.45-7.48a23.19 23.19 0 0 1 1.11-32.77c.44-.413.893-.807 1.36-1.18a22.999 22.999 0 0 1 32.34 3.34c.271.32.525.653.76 1a22.642 22.642 0 0 1-1.93 29.25 6.99 6.99 0 0 0-1.911 1.974 6.99 6.99 0 0 0-.948 5.303c.2.903.577 1.757 1.109 2.513l.15.2c6.91 12.18 13.14 24.77 20.5 36.74 5.07 8.26 8.48 8.37 16.52 2.83a75.47 75.47 0 0 0 10.24-8.45c6.09-6 11.88-12.38 17.69-18.51-11.27-15.34-9.23-31 4.57-38.31a22.999 22.999 0 0 1 31 9.29 22.41 22.41 0 0 1 2.091 17.052A22.396 22.396 0 0 1 619 290.889c-.42.234-.844.457-1.27.67a14.124 14.124 0 0 0-8.82 11.27c-5.24 21.63-11 43.11-16.35 64.7a11.064 11.064 0 0 1-12.16 9.47c-45.62 0-91.234.047-136.84.14a11.078 11.078 0 0 1-12.22-9.36c-5.58-22.08-11.54-44-16.93-66.16a11.995 11.995 0 0 0-7.68-9.44 22.835 22.835 0 0 1-12.85-25.91Z" fill="#fff"/></g><defs><clipPath id="a"><path fill="#fff" d="M0 0h1024v1024H0z"/></clipPath></defs></svg>

<svg width="1024" height="1024" viewBox="0 0 1024 1024" fill="none" xmlns="http://www.w3.org/2000/svg">
<g clip-path="url(#clip0_3_158)">
<path d="M512 1024C794.77 1024 1024 794.77 1024 512C1024 229.23 794.77 0 512 0C229.23 0 0 229.23 0 512C0 794.77 229.23 1024 512 1024Z" fill="#FF837D"/>
<path d="M677.14 443.199C660.18 427.188 638.141 417.634 614.862 416.199C591.582 414.765 568.537 421.541 549.74 435.349C533.341 448.211 520.453 465.002 512.27 484.169C508.56 477.639 505.58 471.819 502.15 466.339C467.9 411.139 402.53 399.679 351.43 439.789C314.72 468.619 297.27 524.699 310.38 571.579C320.677 604.458 338.534 634.466 362.52 659.199C405.234 704.984 454.536 744.145 508.8 775.389C510.109 775.882 511.511 776.08 512.906 775.97C514.301 775.859 515.654 775.442 516.87 774.749C562.28 748.127 604.354 716.185 642.2 679.599C667.422 655.759 688.44 627.834 704.37 596.999C716.765 571.797 720.807 543.301 715.911 515.645C711.014 487.99 697.434 462.614 677.14 443.199ZM476.95 664.539C477.13 662.319 477.441 660.112 477.88 657.929C483.35 636.929 488.66 615.839 494.56 594.929C495.338 593.207 495.493 591.267 494.998 589.443C494.504 587.619 493.391 586.023 491.85 584.929C486.743 581 483.05 575.518 481.328 569.308C479.606 563.099 479.947 556.498 482.3 550.499C484.295 544.504 488.047 539.247 493.069 535.413C498.091 531.579 504.151 529.344 510.46 528.999C516.613 528.783 522.7 530.321 528.012 533.433C533.324 536.546 537.641 541.105 540.46 546.579C543.54 552.217 544.717 558.698 543.816 565.059C542.915 571.419 539.984 577.319 535.46 581.879C533.175 583.642 531.542 586.116 530.817 588.909C530.093 591.703 530.319 594.658 531.46 597.309C537.54 617.909 542.67 638.749 548.16 659.499C548.55 660.899 548.72 662.499 549.07 664.439L476.95 664.539ZM393.88 266.269C395.007 261.711 397.485 257.6 400.99 254.475C404.495 251.35 408.863 249.358 413.52 248.759C418.73 247.984 424.048 249.068 428.539 251.822C433.03 254.576 436.408 258.823 438.08 263.819C441.08 272.189 439.36 279.389 431.4 290.029C440.53 298.629 449.4 307.799 459.21 315.909C467.21 322.579 471.46 321.909 476.77 313.009C484.25 300.559 490.93 287.599 497.4 274.579C498.25 272.869 496.58 268.999 494.95 267.099C490.753 262.606 488.512 256.63 488.72 250.484C488.928 244.339 491.568 238.528 496.06 234.329C496.5 233.916 496.953 233.522 497.42 233.149C502.152 229.306 508.217 227.499 514.281 228.126C520.345 228.752 525.913 231.76 529.76 236.489C530.031 236.809 530.285 237.142 530.52 237.489C533.719 241.802 535.281 247.111 534.928 252.469C534.574 257.827 532.328 262.884 528.59 266.739C527.829 267.264 527.179 267.935 526.679 268.713C526.178 269.49 525.837 270.359 525.674 271.269C525.511 272.18 525.53 273.113 525.731 274.016C525.931 274.919 526.308 275.773 526.84 276.529L526.99 276.729C533.9 288.909 540.13 301.499 547.49 313.469C552.56 321.729 555.97 321.839 564.01 316.299C567.665 313.789 571.091 310.961 574.25 307.849C580.34 301.849 586.13 295.469 591.94 289.339C580.67 273.999 582.71 258.339 596.51 251.029C601.859 248.182 608.115 247.56 613.92 249.3C619.725 251.039 624.608 254.999 627.51 260.319C628.963 262.884 629.896 265.71 630.255 268.637C630.614 271.563 630.392 274.531 629.601 277.371C628.811 280.211 627.467 282.867 625.648 285.187C623.829 287.507 621.569 289.444 619 290.889C618.58 291.123 618.156 291.346 617.73 291.559C615.389 292.481 613.337 294.013 611.786 295.994C610.236 297.975 609.242 300.335 608.91 302.829C603.67 324.459 597.91 345.939 592.56 367.529C592.163 370.379 590.671 372.963 588.401 374.731C586.131 376.499 583.26 377.313 580.4 376.999C534.78 376.999 489.166 377.046 443.56 377.139C440.707 377.467 437.839 376.674 435.559 374.928C433.279 373.182 431.767 370.619 431.34 367.779C425.76 345.699 419.8 323.779 414.41 301.619C414.088 299.504 413.206 297.513 411.855 295.853C410.505 294.194 408.735 292.925 406.73 292.179C401.927 290.007 398.023 286.24 395.681 281.517C393.339 276.795 392.703 271.407 393.88 266.269Z" fill="white"/>
</g>
<defs>
<clipPath id="clip0_3_158">
<rect width="1024" height="1024" fill="white"/>
</clipPath>
</defs>
</svg>
